-----BEGIN PGP PUBLIC KEY BLOCK-----

mQINBGnw2agBEADvRKYVHCoGLbH5c2TYi6iCWAjP5nIO8VWGkmDaVsjIaAYv0L7A
e5aXQaoBhQMVUro6DOZ4yjkc71hJDZBOgMUNYHK7M/RXSoGQwX7/Eg3gj5B4FPWG
ESM21jl3EXe+VtwtMJYbHaEfo/48bpFQd0l1niIHi4hXaAjRxigFfJA5NMWABQIw
C2WFxKMxJyVwmSrm8P6XFGppropSHgzQT4cXDUlwPu6fNykh5RQgU77NEUjU9sBG
IxVDN1Ekma633+UfoB3HY6kj9mEWHRe/DciDaDPn73g23HFVzbVldjnF6YrtDvkk
5/U59S7wjf7hXCJdPfS1wkMBK2gr6CpVQ1gIxniJF4vHan9hI4LiXihlg4bKamz/
iV46rb82dJWJvwl3vDL+O3tfiLFjs3BKAk6oGUasNRMPDt/Ek6DyMg+uZ11j6iPZ
xqXwSaI7TRyVIMIvb+SB3AUpJzbbW45Gr5f7zbEW6XeDSLhXGxXvXrjh8lBuf7Rg
JZwimzKdfgWuvzKAjqv50MlbDenRW1yrkP/Jxo0xOUArE7CUTODIWgBfROfvxqq1
0iUW/GLxCstnTE5TEZtwMfURcHlT4X01tXbdke6VnUg2rY+xDekdk6SLQnjUPLD9
gXiCmTdeAb89ugkvNcCAQPFPR0FBMJc/DDnNTBBUUhM9zCuTYDgek31KnQARAQAB
tCBBa3NoYXIgUmF3YWwgPGFrc2hhckB0dXJua2V5LmlvPokCbQQTAQgAVxYhBAus
H6xjcs034Vt0x3NquhAb+SnVBQJp8NmoGxSAAAAAAAQADm1hbnUyLDIuNSsxLjEy
LDAsMwIbAQULCQgHAgIiAgYVCgkICwIEFgIDAQIeBwIXgAAKCRBzaroQG/kp1ZUB
D/wLe+3L6I3t+m0fUOl5k4qDirDeJm1GZLbbEM/JSv3IFmHuWEZ1pPNKLeKZSW0u
bazBXX/IFEN5dgFpBA5JPeLkhoaloq+OsJ6h+w6p/ZNV+dTZYxxlsE3hfKe3PoO6
75J9XrNUUodZAeG06XGg5yiM3m+CwFNJH4cpuT/UcVwAc68siulb22ejZerwWNS6
6IUlBX3q6H5qLofwJ7CdUXi+eczjwyFOFlreb6ra5uSe5+Rl3jLe4tXQ/ThdAROr
D55bzoHnZs0dSU8ghcJDtEWxEcpJB2otUKpbAnqbpVWnrZyoF+v5ovZad0dbXe4M
8zWYBW1V+Xgb4LvJzyyzhQObT3cEx0TnMS+BfAR6P9emkfqCHags36AZy3lGLzTg
cuZ4w+moi31UBwE1XpMedkfBhut+kfy9PK/sT1HE8lVZIB6lDcwFwjCiHyfc2PWJ
6hIIegnKEKR35HSJodUuoAjr+vnmriHTKf/A0T4ToAfvsDZ/FmlNYsdIdDCjM/nN
CadtVEVc5efkqC1u9D5f3m8ZjzWGDGO6OvcSeibIhkTGwW1QqFkmTCgk66zHJpX7
gLlgd+Tcd6BBJg8W/fU7fLnPE3qr2s//AlpsMvvRb0Fzyi3nxqK8OQy0yPs8pBpe
wLc/Zo17pb0LOLaj0BVjSGUPHzZwpNukNR4DusizgjNJ6bkCDQRp8Pb9ARAA3mro
LUJWpfyEijpMxZBTdsiIumBu8IS1Kp4dhoQFZQMXuaeHhdgDgDXuHvXqKlgkO4w+
iDIqi6drbJUBClhj7Us86Jyn4Rw+51XbUfPbZg7GWvw1uNSC2CY1/w5YVD3rUDg5
DKgDcTqWzUyDi0/Nc3mqwPUABG9wPR6bKhp0Ig2blWcJgM1/H5juOhCr4T6PnKfQ
Pl/xHk31RE27egNyob4mB1zcBdzGYo74D0/o/WFIN8YwfimeW0NraXEgSZSyCIs2
L5zB9gHkG9HumSpaBEJdLBapVo1WS5FaPYxKt2uSXgeJ80k3TJ0nc2Y5UNsRzRVR
cVnw1kO+INSlcE9pKrR5oQua7aaiVcufLvo4q6hDBKP0ODD5Kvlcf37FEo2PV6v3
GSf0xZ3DwZlIrn81meF1NUT0cdGiA4S0hCWQ8lyHtZ5Rz54M+++klPFRkMyy3A15
s7R5MutYzW87PlAESAPqiNE40/jVdOKWzz/9cEa1ICQDlgmrQtqqBUcy7Ljv4KDl
TW+G+vHmqzhWELx1VnuGvLTwP92xuNxm+oseuQawaXQDCXg4OnZbGPCul//iAzd+
+p4/E+0GhI1F0boy0Ycgb1s8SRT9Rg5ZJQcYEEr1/fJxvbj/vfBKEPY8vJJwvIAh
3y4FUwkJN3INmOS7R2mnGuwRz8YKvF0w4IjM1IUAEQEAAYkEiAQYAQgAPBYhBAus
H6xjcs034Vt0x3NquhAb+SnVBQJp8Pb9GxSAAAAAAAQADm1hbnUyLDIuNSsxLjEy
LDAsMwIbAgJACRBzaroQG/kp1cF0IAQZAQgAHRYhBMp40QT+zxwPKJ87JKoHl2B1
QeN7BQJp8Pb9AAoJEKoHl2B1QeN70LQP/AqcIXPjDIZfHjYZ0pD3FKNH8nsHduv4
P1Ppj3neh0PFGjAJeXqWimsUv0BQr7i39YkyLaUoXF0y19iv21ZC9DV+ysLum2vD
eipnvC09+S5yA+BqC6JbuIT8ZFmHkKHxFtHfUDKKY3V3h/F5hYs8X6xmwVk4suoE
xTRmjfvN3GOACHUAoc0l/4e8LgUu44BEYclzUglbqD2BaSSSEYhvRVmVZRB75Kte
aKjbBGzZIwerDcVlFad9SoGgdwkQZjixx5JKIyqRsIjrcnzCLfUCj6sWfHiqUSSA
4JPVRo5vVRw8w/JiXkQgdSoNhMu6FlFCHM5skHMkjaRgSkGmS6sCuvPyn8XZ3nXA
p9b9MYwKjzZ/6OBgJwuRLNH/EohjZ4MTpme+S6Lo5IsslpVsjUw8HuKhTEfjbDp7
Oz5a80T7KBTkHQMBcPWrI6azE7V0qtM7g3O01ad5t/2rTrmQGWbVZY2cTeIIkBNK
NINduhZ1Gxa+2A+gqAXUYdpgIlfcsQgNuUjNHfBK2g363J3cQZOXiDpACZSU98U8
BB15owveO9ZWqn4ZSVucFiN4mM8slXT0mDsWEjQYy0ItVkJjl8DbGRJt3lW3kT4+
jXrYak9OODP6vxGVwAbN1sP9FmwMeBsDCD5RduzkE/5UVofbMKTHKEpI3HOOawmm
8mreCSTNBTQj3/IQALJB6QpIYXowHToXeni3pKM1QDzPQJhvwaxiPoxT94SYdDCl
SgSNSrgsRls8rc54C9WWI8j9HJ3wiJC2+jNIFBB25sFzksZOjWi1HDBCiSPOaUx2
cznUrtzVVLmBCjeV6e68l2z/MCIixDtxfxB0jk4IIAuJVuJCRtW5L3ezm1H5vSZj
rqEmHMkqrsMumLFuPaM8poRDkatInyF7UGnbBA6pntk5AzDeDIL29teFgpRCqf7A
nu84dhxeFtDSTrfTLVu3pq/2wEgD4T5DWdnjnfe+issfhtBOmWEvtd1tCUqPBnyq
iYvwiBVj4V2WMHA4WCaxv5/jh8cJ55YRiA7NYZ7hkhRxdZu1Yoy/yoysGwydc0KZ
yhnmBEj+ZH/ULeVTK76xY8buR+Skmc7OZFnQI4rs1Alc/oZrBpo5R+FTlpcVVNkf
usOih2OtGJ6h7lFS62r6Z3PELfcJ0NYMyqb3Sbm9Twh5M+HLqIiZPaz7Lg9y5ghw
e3kh1zZmYzfdh7081L5O+cy0RFnhQIY8HtR1z/HD+o4H2BgEL5JWQo708sEOekcW
GKBIB1xamDr1RZdQITnECdW06KdWHlcg5GqO1mq5YSIDyVNzL4vaIv4RjEYM19hw
OUFKrTSxXDNpv95tp3HV5my7WGbisiBm+zxkkQOlGkrMIaF38eIpUT1t9XM2uQIN
BGnw90IBEADWngT5kwaRLQQtOMWNcPIQ8I8IW6kNxbO+Ms5ZVo2Xi6P4C+A8YWKG
g8A7TXO5s7Pi4QEDdtvKBtuYBFKgbijbLTZnND2g90YniCTaQDGvv6vVJhE9dN3B
sdfDvWPqRO0XgaIrSBjXpqIpYP1Rdtb4JESq86FASB/rKWIHn11ESqdzG8blmiUE
MaLmwzwVYQj8iy/5Lfjt1RtUoHIxeX/E6v0h5Ssgr1YWmJkE8JlLQc4SSA32bk5U
4ytkANl7y51QKKNABsI3tOYaBYdNT+f1/G8tTS0xOTaI+27pKjAJm6mKPErWwdDd
cg2wwrlzIImMiojOoeaNWcwkEMR4/kCtzR9KwaZvaOo6ONK+OkLYjv9HxCTcbEtc
Nb1LaYFm7h7q6uPAvlp5ZDlEn+v8mSERD6ZG2q4rN5fv3NugO9GXXmwtxVLgWmRJ
7Pun3DuqVUOby4sc8qjKysdv6eVsMGHA+b3IPneZenh8Ga3DRVUKzAULmecWT+Xq
bLCDJhGqD8YAl0R7sccKzO3tSd7Dzl9CA4PDz+MQQ21xfu2KtwRvLQR1JDUxusZh
0/bMy2H81QLuOZYBke8WVFMYwax3nFGi//sNi1DqBet/yQxQ5vGGml+gO5JOpfUD
87r+8Hmr6gFZSR61eKNT8+S7Amk/Lkz/Z9DfjwKFB8m0tI4DosvJ2QARAQABiQJS
BBgBCAA8FiEEC6wfrGNyzTfhW3THc2q6EBv5KdUFAmnw90IbFIAAAAAABAAObWFu
dTIsMi41KzEuMTIsMCwzAhsMAAoJEHNquhAb+SnVW10QAJ+JTsBHFzHIRJcxUlbF
vAO5g3Sn5RIwNautb/8JkL4fEZ/UN0bvuDE1GoaVgDLCP9wzSVCK90PSPs6vYtMU
g4T+FisvTxsEkcIoxaP8q0OiiU20yNGNxYLlOelORtkoNFQ+F0eisBDKUMde+9ju
v2BOH49XoIyZoIhEkkbB0iG36z5UeVgFFMCsLq7oKSWFR0cXai2d+7ROADr0TekK
oaZCjwYW3t4dPA7WwlaGInm12ynIh2xbuyjvpy4OjYwS6aO9cnGRObxGJDEw9ykm
+n67FuhoxA8us0LcN3VTBs53iPfLOBDtNQO0HOpdntc5c4+m+dPHwVJ/do7eW6XO
hFCoUx1rXO6HYzxHQKo3gl80Z7Rvm7W8cob5IXQ1BLn9w9iFEnzQnbeGIA2XVdsx
BNu2OTZOYRXGP0P5vAh7bYywIv5154K+wxbZW6pg3Nhqp0gpFm7G3B9Y1JFZ0lLo
FShEfLXK6jcEiqZx7d+TZe0rpRxy5auw2V3T/cTUl2Svm53dYn17RdTyJ4XQCsS/
4WVXJad9io9CzwVEnT8wUq2ggMC8BUCEVjXjk7bNLoxN3UqL8tJabWVOiRQgkhV2
edPnMYLAWU/oEWe1aytUOTxPSvjh4GDF8dNJJoenvTeKfw3e/khXeRVuwlTCAXJv
625f5YXYbE0qZM8fhXOH0f3JuQINBGnw92wBEADCiC657UPqco2nwSZLfeL9cYkA
FUWKMKRQKnAw5q3CKUvOeW8hkrHH/HRj4EWaT2TlXqT83z9KB8LGC4LEVc6PcFfO
UZpk5xCCet+pd1DCJeYl1/E96z+A/k4RMxm4Pk865ZCvgPM/MRURuBm8Q3LuSpNI
cJR9VlUFRqJRTBg6+elH3yo5euk+Kk+Cfl3jmVSAnIhYyZQ6oexTAhoBph4oMpff
QAIFuGXwJyNByTf6m/I3BAeUUTDr5s6cT5eajCf/hsJdSEKHrPX/uSWT55Srafg7
bCUUwT9RCIWycO7V3uPPbSJaJ+YWzZkh4ypFK4sOzadhBWEWWfVDF402ug2eCAP+
a20oKBbg0TMgNu0/YcrnjqvK6f0RFElngp91XZWa3Is14yuJVLGrSpZ2ZQX2zAM4
kp2b4/590fGjvOSky7HAg97QvI7ZSnS83lf7fM5jMlRveIFlGZMeSUbyEUWB7NWP
jbcA8KVVWJ+hI+pcjCtgFhWOP5nGQjf+/1ZoBrZtDb2+6E211Ylrd9Jk8DNbn7gi
yu7PWSKhGsVN/ec3rLoDUbaCaDvD0Ma1FYM99zD4N5h8p8VDvbzF8AveBlGR6IBG
H7VlxLkXcxOxlPmsLonqiTPVAXTi2IzgYU/xz6e+oYljnoIVVRGnVW8H2wtGlrZY
8SWaahmDXU7xn3rTnwARAQABiQJSBBgBCAA8FiEEC6wfrGNyzTfhW3THc2q6EBv5
KdUFAmnw92wbFIAAAAAABAAObWFudTIsMi41KzEuMTIsMCwzAhsgAAoJEHNquhAb
+SnVc8wQANXhbNGsct4h/AlNOiFfzdQ4+aXc8m39myMo3NY0aEPLk7nnOT/eSci2
WBM888ohcgxSBehmyJV1/RvRJSxJktVayPkcSpJQBskwWjYf+pYL5ANl+KZOKMTD
5bDUNmfkTji1RiOFXVg+ExTSHOu4P71l40LlYoiHUR5PFr7jNdkwWm5DJ6y5JTpb
4+ZrNh81RDHl0czJ9UsxytNGgRhMLrscSk2YVgGRsr5lcmbGCGrf9DWFOHqvMMo0
anTd0P1Upn0qKAOVvg+6c//EoXdB7/l6QeS8tbML9u6lM3ACq7SYyzWIZ9PSs8PW
WiS7d9SzZx2Se6rAT485bTWOJ7yYlonDjK7OnEzaVnvuGR01mYjnN7DZQoM9LbFK
qQQfjatG9qPqult1m3Jxp32cZfWvUTU6Z1V+UuBPOVDbUfKRzg/60fGQBnzC2kCu
F/Ws9z61YQx1oV2QyPIRwxbUOM16e5i+gSqtrpLJicOD9k6Lz4dfkmBttv3cln0k
EvAEJmO50ybGXBuPvv+MLSiyWnbsmH/miHiH13dgxVN7X+unm7OUWePpiawb9cz/
LGeGahG4rmo/OGvie8OnedQkppCUmchb+jBQn1v+e0YfGnSf8nhlFe/Jn5rBtwtS
F8MGhWIe9LApfnYLADU6vCwRuHZh8YujshufiTVsIRA4qj2CcsrU
=X4az
-----END PGP PUBLIC KEY BLOCK-----
