-----BEGIN PGP PUBLIC KEY BLOCK-----

mQINBGmVEuUBEADNPqAprDOO9R2Kg4PQspqZTKfeevsCbYhcX3wKxWs5+lGwJKQW
68KL0loAF1LhAbbaa/oIKGHHy12guY5RwkC4+mLheDmLlzFqec+6i6KGNM9jHpFH
B0C2+9zxInME3QpwXYSl6vCf3yxwSuzyhr5q42rLgHsBREYDPpCaLzGpguzm3YEF
K/Qx/t4Ekup/D9BzVXTRHBWuyE3Kv7XcElNGxGVnJcFSdfb0n22SExkiVajEi6hp
rUlqmRbnA8y7rE4THXFqSRktYP3H5fgqx1f1IAGINyLMXlZokmgxpxtaZEskbtNn
9v1BcBbNj2r/VJVSpAfhZ7Pv3dMOIsYpbuH6YrlphNXNmQ5QrOKki0V5GThgl6FM
QeQur+9zuBrOw/Lk91r1vFG4TT09+DV8OU5P93TKfcerwjvmXUD1ZGhIPKZO3mN3
3boRzmqD/K7DxlfbnT0lFSZdQPSHN2wYwSD7rpzotJ4Qb72CxnV5vcarZnvI0ksO
P3tnpx8J5VK1K8t3Z7ecLVAW+iQZtIFM9SJfyotwT6BuH2kQOXPbDP8lxmNwDfvd
e/r6xBPRrHhT5RAbPv4ePRtQydU6sSwSJHw0jeXVtIEkgCMK7Ie+gYX+qFCEH7O8
th7AsqE0tBJgwQK/UKaxUAVmZGp1jFfZVxDbu5cnzyvS3PRWbnUrjp+AkwARAQAB
tCBDYXJleSBKYW5lY2thIDxjYXJleUB0dXJua2V5LmlvPokCUQQTAQgAOxYhBDrh
rFJLrZVw8jMRxFiXLDk9EUFlBQJplRLlAhsBBQsJCAcCAiICBhUKCQgLAgQWAgMB
Ah4HAheAAAoJEFiXLDk9EUFl8+AQAIHNodf/xjwgoQCSSQNFHtPhqZ6gfis6wq1p
FadPHKFe4c/NC5jaKRb/Lv5KkAP11lDerkJGt1d0Oi5OilSOAJTooVkvDi+qE+ha
n/uCmnEN1flkrnCipvHA96FrgwYdXC1gCeRZOimpFYCScPgIkcdd1aojVLEVzL7S
3dz0y4GmKhu0dLSGbocfzNjwqCkZubFHQWbT7saQ3CUWwTHF1fWeVH6kPANfauwf
br4rEVmAVAZ01uBkAwqa8Be2NXxkDpAQvW9lOy4SpVwJiZO4EtT6ws9Sz/8v+H+E
bqE+NJ37f8xwxlVrqQFvwQY8ZQ2xBEL+Uo6Cm6RpL8q0F7MmIRgn7ERqGKCtKTc5
bIYqr+NcT0Sa1D+knfak9eAStArNFpg9XPP8+xoq9CLm476fxD8YFAQXTLwF5kjy
ZJGGcGmyrxDHP3IVKGIFiLTrO9U/x4k5PYoM2yi9ub6Y9TMcTCBnabHqDvPoaGRs
LTxscaqfFbc3SABWPOhM+xS3+qjlkiv6rE4VpupcoGPp203opV6nE/PEO6o3Exjb
Mhidi8QwX2yVqMQDD6/4zKJdCyQp4GkWkY95KdaLYvmIb0l5/lq8RRNnIPy868jh
1G4bKTjywmCG0REHYcMMdIjns1C5rQluowtxj6CT9yKQApotgIsyPQMTTC+czLxu
pKFSxja1uQINBGmVE3MBEACuiA0hMz56rPWhb+385w0mfT7dSK1FsZu48LncoLI4
YmmXo9xDoT4/WHIZQxqbSlhRyuca6naHWLbgFHD9iydgHp7IuyoVo63W2M3uAWap
Nwvk+xDuEsnl10iGxwJVoUUFoOIeCGyAGPH2ik7Zpb7MxSOWvjW3ukP7S0IFtkZH
1Nc0ot6D/5J8+9XlZVbMdP3QIiprLZN8LKS1u2OlRVXkbKw0jxVEL85hzyimL2+I
xY43+xd9JQrAWSrTfOThVfWcHpX3GvwvXWrzkLEEBgw0ziXeM5+YqQqCW72jsRzB
ZHOLr7Gr7QjU3QUFYDGDwWanVhqAPyvuWB9JJfkbcHExZybGD2341bDlGyCA/10R
K+gO6ssuhHkUVSgfzZp6Bap4OCC/FMm3HBBJeMAyyDOfqlSkWondZV2eSy5UWOrv
3jf+zKCoked3Dp0BWeLDLisP8d05zGyI3SZ2QKi/1K80fhskXSxnbwcO2cOfoalW
0L546qxEfJuMwBOGrV60fN5XU+7/ixN59zgTGhf1i/WYpDxWE7qX74crJmTFwJ67
AGD+/y0Plk/2d2BO5flsEmy4kpJAFmd6AwV7whcUkjSNcz6VaZyBUoTnS3Juqi/5
AnzcdfWkrRfVQPyNW2UlzzIcyVcJp0QYB8oUsBI3ofILSsF24QOYf14AHQOEJ4Xi
swARAQABiQRsBBgBCAAgFiEEOuGsUkutlXDyMxHEWJcsOT0RQWUFAmmVE3MCGwIC
QAkQWJcsOT0RQWXBdCAEGQEIAB0WIQTabz6NyKnNL2N0r7gQcIedIxU3vwUCaZUT
cwAKCRAQcIedIxU3v6wrD/93UxTZYOV9ZtEkw+Pu9ntVOSzOCwcUTGPyRecplTkH
Wov9UEcqZODyEwJ2LN2PY5qLdv5UGmpv54l3FiLjFyev++7CWdq8IvsofBYxvn7H
jwb44Fhs3LJv2pUoGAlF4EeSDhJ/g/n0gxfSZ12ZHb/oLNT90FuQQLq6HSE7VJLT
D0SPX2v8fosxGTUHMc1uX7uxfUoCiHu3XweQMDpgyJBS34W1Vs1Bxw/4OQeFaMS6
66fHpruYexUhCSrV5wI9AKrfrx0u1HdHJ1Q07pl8hdlyi5ardZF4iQ8md/ZGOsr6
aznZ9mubCDUS9bNt42Sv9kOu19L84FF9qTclthb07tQsDDRat13L0MX+xAJv58Yt
WLu/XQJ8K47xK9N6SlxIr6xJh51zuXDWBaB2aAUa7QcIrnwdlhExs5xPD3lccTMg
gHH3iK1bGBBBClmV09d5A2zioHKW6slUp2+6ftjEYbFOwxum00aG8ByZCoV0n2/h
y9LolZ9BH7EiE7HIhNknP48eQ5M46ATI28vOGjEiUX58umrOqabX5mQWGrEO006q
gnYg2qGzXyLHJFpxd7ZYWIGm/ODg5sVf2YPXurpWxuktVr3nc7y/Q5BY+8a89Twc
XuN8iyOnoBDk5OMwwpgK8vGqVWW/RRmlfZHi0aAKO/hQfomDjAQAeEwXuYHa5QGh
ffOjD/46rNteMnmXP6hj+MFGSIut/NgiunEwx9uVsD5cbmXLBFTnc1RFO+ii0qaT
W37quPAZtRuqYIkv27mT4gu9X0nxpAYlvqRkmMzPz/V4EDO75gFpPHAKof2GLENz
7VVPYFbfKAPFLs4aYp+qzubWxmVrpkYvCFWMapeybZvzIlG7EzQBJ92u0szJkO1T
NLDR8i26vj7CiXyYpFciABxBTc/PenbcI+jh92s7EIoba6ZDrURc2AD58qussjPz
brn3CK3+nnDQ3DTqZgeXy/RaxGDN8rTu6K1BirjmzWfvIdMjOScuZ61La2LEfJ0A
yAJTL61zQqbN6k77/uBZXWfdG+FmqFO8ehkl5x54sReYvbTKMJm5D7wwvQ0le+kM
GIr1AikQTkEp7DDFSGQAVyJv4A9IsZ5JdjPtS72/3a7wJg4L0p0YTNsWvqYoE7t7
eiJO83NT5gZYvaQbmASACDbhEkA209KQt9YSBnVxTgKBjD6SilMwfyiqT0q3VaTF
DLWwFZBlttSV2F7tfRaLrZKMXLmy55v4Pw+mz7NwmFMDthLhQ0dB8sqs/8r18wSR
5ZZF6hXLHA1NUmbkIyD38A608litvp++SeDADq4WDPBe+Zr0zMOHiGpZjEl5m6gc
ee/Kg6IGXu4+8SmX8efh4G7E9/QnKq/Wu4XKy54ZqZzRea8Q8LkCDQRplROwARAA
xppn1OrpnX49XH9u7sJEyqQBD6+kkKl6hlkzAqfweJzIEyBBH/jjvDB5o4AUHHj4
MYIlak1eqzqygf9GNu7tMorD1eBnz0YVu9P1bbmEXWPZl83SRKrX+KPk7sp9d1yD
vaSJsGEY/Ftiar+rtoSGqW1XvXVmq6t88tfQdFOyMOLTAiUL9Jzm1wQp3eFO7/c8
VN2J/t4QBgIsxGhOGcgs3fnvuknpbQKrQRIOExej/BsPbjCvSvWIzf/dbnYwyCai
YrOrtvACWztrxaZrdp+UZnjvOt+bIPW4Ud9fuPLTpuaYdgDc90+iwJPxIXgaMzlI
GY+ltmLt324QlxvenPwHnzUWz284YWNiQR+ezGEwgaMpzj/Durk4iIqAIdYyjPbZ
j4e5r/6kN2qJlhcJZuoEBCK+HcPx9GUQyrbK8hmKbRVeBuLgK8bnvPx6FnRuAqYW
BBb1lz5pG9zEJTh7o+iI/n9dfSt35wgJOePte1p6tBJ0Iprf7j/PMxSINy8ISSwE
7ZPIeNLLxvYwdIeASzZzlqGSYSnn6GF1j5VHbduqIArk+U+4I2uDjXgIr9uFzQtl
ScHUFgE4dRs+aBE6Dx163Re9Dc/sD4Z8sc2JLaYB+J85XhybuwhmUAJU7Hix0Sl2
C7l+X03QcJwIxrhQ92mvlz8JaTNuxBjAiXe/33v+jl8AEQEAAYkCNgQYAQgAIBYh
BDrhrFJLrZVw8jMRxFiXLDk9EUFlBQJplROwAhsMAAoJEFiXLDk9EUFlUSEP/j+P
cIV6La0MSUbuuWw0aYjGFxsqyrn81untw8eGDx04u7U6fHxtGgRkB2p9UY028jCz
uAI0gy2E2imZUP1HBvOMt6ESv58RHGGBbsKY5nKrk+pt8K8s+Ai3A8guFZqn6iLs
3yG1rVtq2ZLrth+HmX5gufr0Rzztva3311IuBJ6Z5xnZdCRahf1ITWgjI9D0K2Rs
bQlL5yxpmDRtl0MaHheSPW9t7ZbXH7FDHoig3SbNxtWA2VzTcJubNQoJ7WAzOy7o
86buPoKWR+o+2TEIqF59EgqWpkQVp7wiHn2Nd36680Ie+NzzVjam5t9xsZAMlrZF
FVOqejTb1JCm/I5pgcpf/b3t7jOzYj/YCmmJwwz0pCB+s4+7XVEXQcgpLJnOuc/S
bb4Ye/xpBGp0JqxdStojdiOFqPf3DA0p/BH9E1rm8GT+LXHHt0jzkqoMk3/i/OoY
2mpYiO/2rWig+FcdQCI4VZjv2Lvv/xR+WmicJOgu9G5+a2+VzK2QgM9Ozpp1fzd3
nfe4uBPIKAs8gwRgikQboeBXY2oxN+bYb1I02la4BNKMNhMiGJIrrSKs31AH6x4m
8Q4cIS8sWs9hGELGfEnvu77NEvWv7SjuCD7ULvkJpI29hN5R8DCAL5+1fP4DdAe9
UTnhKqUmr+jCse3PI278LeQqbaWA6SNsnhhkpYstuQINBGmVE8wBEADVg5PR2gcp
jX6YIe+WSysZkgemZ4rcsDUsG8+a5G1dA7mowwTKnmUkfBBhWufXWDIiO8Mv+Vbt
mMUeHEkR26UNmDKfS7pxP9H8QnGWXozibakTSbK9SAT76sV3gymRi6LGr2mRAhWe
zq7r+3nwxF7HPu9pnIvlbYE8GwTtO6SXFqTeovTzUQrjWIOnbyOstjmGh2aviEaR
MDbzDGP6o2e84AOxY6wrUfhzjxdLlJfFEQexaaLCGmT9M/2gTm6VSIPN7XaN+WKV
g2VczftKbcSMI3NoAemYWW72PXJt31X9NIFNfGYerqHzP+/aVH66DlPueiJuwXQB
ry/UwtQIFO07ua6UCpUA7vsJKqqne2J5HnbXu/RukNPA+MJ9GccRsryTnM4YyAib
PxC8Zu36IvO8CxrwGWhBQ+gEea4qhFpGQuzGwHmFBm6+OYe1sOKhTnYufgaZxNWl
TrMNMILSbrjdIc048yNc/6/UQEMG1RfnkSSecyfUP1YhHEzqzyVAq8V8YRwHeSte
eyaBxS4oNC1SaHrtIiDaY7Buv0xwx2qbXVjzbAy05gXv/XuoE7IavTq1QAInbiSd
erj8SfwsIur41pPneqe9ViuGVhNfYFzfBnnj4L6bMSYVgQFQEA5ml1NTqaqSEJZ8
4aQqR5cGGziacM+XhYhrSOQW24U0KRhbGwARAQABiQI2BBgBCAAgFiEEOuGsUkut
lXDyMxHEWJcsOT0RQWUFAmmVE8wCGyAACgkQWJcsOT0RQWX1dxAAsj3qHItVVmSE
uooy3UUqIDzQAOHE/PInyeWzEy94TaC9mB695Osr7a4CzXNnVAcHZN58mh3waSt9
KoEOimZ0gVrknPSYD8jRxf8jaW++OlklVwyibMahxI4dy2RQDDotK5QB7+3n3s4y
+429Z0JLbRrItXbAIu1ABIXCn2yqvr1owRnYhz+ZB4uBcrjgPDM06wq/wzjfFHIr
UQ4/3R/wx6c9z7yhFYTqfRndrzvrrOMW7Mg8RavJ/R/bCSP/2DQbcFf9UhPPZIxu
vz0IdOda4LBtpMVVHEfQIkc+GnCa1FDEHybHiFeye5kbQjApGv2GBnHx0t2blx1r
U3TcAKdAj4QJe7RIti+S/P6jlIiljfRJtsoU9VyNZBXoPcItOF4wwlWdQZ7NUijV
fI7h79TSHHRx+Pv6d9PHvF9jWe0SjuRpgjZ07WM6kMW1s1y4Ed6xagi7foxemXZd
jkb5GqqW4lo96bmTsn8zHqz6PTJfN64S3nhG8yPifac1raCmXuM7Wq99eCvf7S5F
XJvk64WorOVyStTFnk+fQIt0YEGe5ka1qTg6OjpPKIFVe1ZJeW51rF3lkdUG/LqY
+f2SmOgU2C7HzVi9eLWKH5xbfwYwGic+W2kf/beMVwyD2IScv6mTDZ3DGO7hrehV
xs7KB5qLw+5zyzks88o4aSojnDdIelI=
=FnKg
-----END PGP PUBLIC KEY BLOCK-----
