-----BEGIN PGP PUBLIC KEY BLOCK-----

mQINBGnWc6EBEADR3bWaU3kM4fUECBeWQm4O5skANwlVaG9XHmuDCkWjZRZ60xAC
z5PKMNfYUZcHmb0MvGkUzZ+rAP6ObOvX9PiexEYxxjcWJQ0ci3Kr7kH/3OClrsFq
H9xlvEgEgBUBOI/y/fsWNxFqcjVtBocP6ZX6KuzPgyd7AKZ4sca+bGjJG9iJqXKK
mh8JqvNlmoAual0hQiAXmQ44fP5qd0tOE/tdERnSujIwdcDbCV9wAaKDxJzjEH5C
LpzzfUa0EQNXpmVaEkTHNIeGXaTccdOivYrbiU3v5/3OrToiOylyfwf6lvnpY1j7
K8053sy5JsIP8GarZLK0ExUr3QMfOhVyB2lzvzIh+mOd5QYBKYQk7XHWsQMsHXnJ
Lp1JM5ywdXXssy94f33T/954OTu1hMfyBhusFfQf6prx7208zCTOGy+UAsHpTmaA
T09+dQ42aETszOa1NexZ4AohT72JiMNv2muOG1slkzor4dg1iovRMblgivk05bNm
WcP0sDzllg6QnhuUHxluUH46lWRNHu5R/JMqE2YvYk43Zl/Oxy6Knreq5TL8sdt3
XAJD/qQ3k3BraLmun+szlYg+UbGxvr5BbgsvDnNkzTi9FeOzzXExY0vSEypMV3RM
G9ltNNBemdHnyP/8VNtwkNCnc1GANge8AHMOAEWVhQN1+1QdY8G/zggs9QARAQAB
tCZLcmlzdGluYSBGaXNjaGVyIDxrcmlzdGluYUB0dXJua2V5LmlvPokCbQQTAQgA
VxYhBMPYJqD9V/U/pR+vwmhf40VfPdnKBQJp1nOhGxSAAAAAAAQADm1hbnUyLDIu
NSsxLjEyLDAsMwIbAQULCQgHAgIiAgYVCgkICwIEFgIDAQIeBwIXgAAKCRBoX+NF
Xz3Zyho8D/4pviiboKcTW1Mf/SK5WdLp+O0Qd7MKF9dT4upWJpUAgs8/f9v7l1/9
ilGUmLzZXmOjd8pFLk1oWG54hFY6ShMbDr25nIvGFvgfBNAlLe7ktiFVNd/5CNZE
ObHqjuJAROX16S1zzGStpKo0s82TgrGjMv+R6hqIAv9V+/w70196cxCK9keVf4/p
m+ROA0bg8NBMk8xgtXV3FQRTT2Oh80gGDYoVQox081PtfVYWrygBoGpk9qO0hlYv
kN2VGRCUWZZFY9WV6qjB1DNVIkRh7/3iLBpf+qT4CAoizSrGbpTdRc6/aayrzvzA
VY8bqVnQfuQI0gmx9YbG6kbsOvTzfcYBlOUtmd6NbdjjDeXbpniclLj502C6z11J
1UIDEWkxomMXSWYuPQPc1J51d2noRFIiB6rOBlqdunhJ6Sss20EADp5tNjgnei/W
9AHYt0qjifhcSm2APMcvnpLkkaTfepY4Dv4d5HhCJTJzJpo+oKOqQxF2bv4el2Gq
OwzD2A+Q1DORIkTKUgl0hDl5PcLDLXjNWL6uRwpCeXyeyafMgJLfRe8AoRlmVjey
Ddd20hKWRAoD3GICujw2GmihYnILnxXdpu1RdFIHpKqDIzdd8seuidFe423z8Acg
DlaeWU+LTnBENZ4Bxs7Yu0OXV4EIK4xQQLTdmnbMpPMRicoyqmYWT7kCDQRp1nV5
ARAAsTsnpaWUUJu6qInm0461ld79JKpf+X0o6O8yTWRLTz1K2OmWG4THhkBBNFYo
sTxSlmuF/UfLXBWu94rypdna2Y7uD7aZ2a9amARvUyLz9bCKVTewhBGQXFR8M9fG
jw2eH6MjA1AWr+zv9926UXAF5mw0mc3p54ODse5DLUxEDJp8noPmmPJ/WjUfBFaW
501td1hip+EZxUBslglzQHfygVIyyTuC7KmH27p339lEygrb85t8uhCdkt8st0JT
/dTUxRAe/4moPsi+9QKJOlbxpJ7/zx8h6kCrVE/wdK5g+NTlRrivHc+IMBoi/PBc
cDyLLe0FQ2KWTfGu6vdznnlqz0cnl3IpxecWNRGUT2/TXPULEE4FNPiCpa6c1Np4
XPzLpN++HjzwXZ4HS+Dkeafy2OCZyVtmKh8tSOsmVtKgeXrknnj2fsdSY9aybPwZ
IH3wc9F9BqLxVzSMyCqxanQ9FM4/jC/+noAk3a3hcL+ZWh1L/4qYehCeYVLC307W
1O6G28CA2zncR8p61qbxzEOqv+Q3q5VUjQTboaEm91T/MxnrBmkyISOPosEPo1kz
ufV5JVzU0K9FSBQek5NYW595gQ8UBtZfXRu3ut4UAV+l8mPLYwrO03guHbk2deA9
78H3PDv1tM38MfEteWN++Eo7SYu7vgfDsVEcNHjHECpWg9sAEQEAAYkEiAQYAQgA
PBYhBMPYJqD9V/U/pR+vwmhf40VfPdnKBQJp1nV5GxSAAAAAAAQADm1hbnUyLDIu
NSsxLjEyLDAsMwIbAgJACRBoX+NFXz3ZysF0IAQZAQgAHRYhBMjytdK4Pxq23K6K
JYeKc4WdrYf2BQJp1nV5AAoJEIeKc4WdrYf2AHcQAKVADI0cIchtUUAx9zgkjNoR
1qp6tbDDxhUVNtzS+q+TfyuPWw9F0+zKd5Qkbf7vku4WsArxCuy52F5K6F6ePgoc
9+Zdz7sY0ZRxJqln2kJ8amTh9UgkmgLrtuzAakxLNNgrtZduJxkXO9CNw8nAo1q+
ynZ30a91vixUTPSZSaY5nLkhzzN1GQAQluboeSuuLuTWJOWLwqRBDKSYkORlpbgb
CvDXUMd8t1v5kQ/48SaGTOmT8ipg9fKsXKUfXoVQUaqO05gKWJn+bNC3cowILvHo
sFhRbTn52CO6XHOAC8lCBxi1AKZ9k3lvz0PscnKg5iTIsLWMXPmbp3zBukVScXnU
aSLBhrDiyzCrx/5F8Gwb/RyYnES4NhcxqmvTLh2l3h9ThVMW3ET7RsPqYM34nQb9
YsnIBJx37oble3jTOBHN7fencymU+FKPWXXWWyTQ4wa9r9ojjFCuY7U/jPxKcq8m
Bt5OJCrex16oL5mHPSqFBd8ysxyo6StdGxpdkDAGw215PAF62R5ZpB0OZoE6Av1o
SArWJJyRF6IvjxiVzixryNJ4n23A/PXL+YHytFUwuU8PBCDtM1CNCequheF/FHdO
PDsDupj8AxWgkNExVktyBC3HYZ3kzVAPP+rHxHiKki2/cWTc4cChrXK5qQpbpOG+
yDll9lOgunvyIBrTYf/5uagQALfAHqS3x+tv38Cbjm7+zOQXWjuf2InWTBnLd7F3
X1pcqbJTEmIXnjyxioEkMSxAH6pKI8peZXyqG/ThA/VHrACra50G5Y7qgZ7d1iKM
EdYgttQXIgKRwNBkXU0WWaoig7WbvXVdrVtH3EL9tQV3Lx28RabstpCqIwiAzD1j
kqAIwU/lPvJ4/QqFh5dCRcb0CjVemDiwhwn3inPc1fQRlDirkKebJiYK/AqOep27
dkNI35cvH7j7x0CaCsldvjeCPgMdfqLHzFkH0IRhO2CjPjU9GFFB29aqCWb1aF7y
sTTHgU7FKsaspNSzsgIUGHaOZWyV8cbVW9TeUWf2YxUvJCiJ5GPeGK5RPq5y5NVV
l8jryCTjgwrQlpovT1zd00sP8TIGR5qeF8rS4z3zg1cgspeYEaDecm9U9pXljgJH
CrODcRdMrA4/aaToqAth59v3pfwIGvuOS+4lrbzBE6xGNxnTpPOX3y3fjY+rLrFp
KmJNjyTutcVY7GlrxSBYHMwFUfRpBmJneAh1DVf7CtO8o/ypJsB3G72RebD+9Gwd
t7mTgzCW9JBL08YBof2syrjmnoobnme5MJA5Whx9ZJYlcLSHgv8NLEGkZNQULpw8
ppD+38zYDuSXvH/tWOZpaRsg91p9Ptik6TvTWp5YCZPV7zy79oe7mYcMxBpqMwLZ
OWlMuQINBGnWdacBEACia6gAWlSU8taMyQcVjo6cUszamoONoCbJlL37vZQvAmAY
5NYZwnr0EUMPVPqcbGcKDGfUtcq5Rep8YEZlmiB9mh563pAHPzX6UzVD5HaEBhZq
qkLnBK/Pvt7nRKcBgkNA8K2fjJjS3BNhuFSTF43aL5NfcOSy8I7J+OiYE8/z18P0
wWY/oyv6a1HyMUgFZOTBIUysOAKQBR8Asyuxsr1DRES+OJXILpjdI8K9da20QuPx
NJHqWVkHdzdY2LRRRkT4A7o6pcna1pRkM2PQ+hmMI9GkxHvQr+TLe2LCXw7CKqlO
dTxtCEzY2HDpeLge3ihZkUHAANlMWyZZXGpH00tM+X9wAvzS3S0pEdJeetKq2oJY
p+gPFZJk7ndCh2p/RT/kL8bwUHklm/26xV3cSWIn6gww6pbqVwFFK2WDL60WvDQb
tqXmUOmD+7BQ184ro4LemqGsmxAsn43sk6deoLF+YpU1sDY77FawkrPXzoSTKXZu
hizuNYBrQ6vr6oTfS9lPS+6m8pkwVhI6FwESY5GaFJSYgbeUI5lVcCiw+KDrbgxJ
2U+P0xUeF3vsSLTg8hECSWrIhowDFF39ulYMc5jEf3rHhB9sp7n6T18UW7z9Kxnb
WArY4a+F2sHGIXQpj5dCItSszmfWYMh15O0A0je/adsTLum8ULrkeaQ4HZenbwAR
AQABiQJSBBgBCAA8FiEEw9gmoP1X9T+lH6/CaF/jRV892coFAmnWdacbFIAAAAAA
BAAObWFudTIsMi41KzEuMTIsMCwzAhsMAAoJEGhf40VfPdnKQ5kP/1foNgamrAR3
ZAAXYGsruRmZcH/yszeLi0FMtjAp2whzvV/1bEKMBS75sRwEfMhxhn89eGSWFt9M
ep8WdcRvQl5NjwIqw6krEeBsqlcjJvLbkk/y3fBmefGJQuarNBbXurJotyAqOufD
THOx8clcCkCS3Xw+mVOeBSbW3lsv8ciJRMZs24FPO2qHTxVzRee3G8i7a1yp3w/A
P0NhxOxULE2o3kces77ucgCSGjGRFmdkm9qrpjt7vbeYOvNE9Y4MqTxTTCUKoK+4
0QbGegDRW9596inpmOQtt8/+s+Qrb92ZJ5NNygS/62blQGtarJ90BYdgWuJQ2k7N
wOaPphWsYihcqA2m89CT8wqn/HyvqiKKcDehhjJUQBav6w4b7gB79/7cLoHUA5BH
abSaCY7kBkzFsC1kDHfuuTYzFknQ9PI1z7xojySeZHLHqW8H9k/ZiQOhaCn7Ps95
sG7q3Q/x/Nquvdhme2dCJ/0/xkHKgKJETLB0tOxczpyNQMcEKB02pc7VCMD5IC9z
mhzeVPQlToaTuoUNMdu4haDDy9cEI/c1KrmRxaA07v28STcZoMF398ungpv2YKmP
BmnPCSLFNqDFJ31A7NzRSS69BayV4HLqVARbBbmMZoHTVDuBC62JI4pBXJs77eEU
Gn1nCFfGhjZIThz21mmFEMcjvQ48bpdKuQINBGnWdcgBEADBdG8ExAc+9kfohqlf
8kaqzbd9Jp88m5kbtS4gbE4qOzVayXPhGgim91MxY8bPNHN9ooss9SOJ6ZUfUeVP
sSx/E1JZ7zx+1rLYb3w/S/KXG1gbwSflemBIylkuDqzM+pQC9fH/tCHOiAx1CiP4
j+eh76iSfxAa0tYUAP/jdI0Hi1LDbgxolw7XFoHzWLUi1NkVZ+TFbM/li9CVz3ay
BM4gRUTtyRf3UT37izR5lpCwD+GrVqrygTasF4Yy2Ixkm2KkF/cNROqc4W12BqUv
yTJ0rOkjygNJFTIfICSQBe0sHaobnO/smI4mqfaWvfEcUFo2y30WZYsJSBcU7ZnV
8tUNdIx46SAy+GFQoV11QG1u5EYClwk19QxSROOHhsSKDswTQLjNgoBjHKwzc0xM
UENM5KCIL8sFsQGxzP3qRYqTZ3KI8mb43EjwaO8E6brOkT7Fk37ZsLHZPUAY5Utl
qAJTd6ciIobPo/PpYoZ51vgQGzhYXvZA9zWqhfRPDlNCOdAkB2anhZIrSHFmzIiF
UbbzbGHri0/RuudlE6iMqWtb1amHj5o47Ed2jQQ38/rTkMs0Cp7zXTLxazQge657
GP+6WajMOCkBjmM31OQDr4F7gHGombtDD9OpC3W2k+y2kTuDZlfqcbmoY4A4n/Mv
bfg/NigQZkHsCWZBzR81fAt3+wARAQABiQJSBBgBCAA8FiEEw9gmoP1X9T+lH6/C
aF/jRV892coFAmnWdcgbFIAAAAAABAAObWFudTIsMi41KzEuMTIsMCwzAhsgAAoJ
EGhf40VfPdnKlWwP/i+JcsQzvC8w9WCe9k/YCuC8S2J4VSEtRgY1XB8lKkwLUwp8
AD4+tGBBs5sOka2/ApvHIbQYH5bXmenjNOvt+30vKO/9dEC+TixCJgAw8OXPMyhm
6sApUrF0pOor4aK+/4f/xpEA1zNmUzlOf+lWkSBrhz6jtxzX5uVFE1q1u32a5coD
Ze0y/IyaM0Bdi2dyPY97NwTcVstY9JAmNOCLq9PWGRToLHX8M2Zo0WM48fqXzIQp
qzfGttf0kqdlN25Y8WvKxof+5wp6e4kRn6rsahe6QYDOu4HmWM5/5pUi+M9B/lfe
wDw7cy2EggXdnVjLJZXeC7NC0p3+fjUHxysjk0bYjOYy7/YKyaR3RmreyVrOL8t/
7Ias2oPte972KWSWH0rWeLRUdkpTEnLheq40kv28gA4zBVlVxlIXnlsmtCzIeoIs
8T9OWoPizaEQgvF1AFgRTAPXmw36stbz5qlTJEC/IgOdkRQNK+/N/b3sKp7beaov
y/0A53Y1EokQ/BPdtdZLRzro6DAfNcO0+dNk0f1lQSnCEdp/MxFmOT5KCT+P9mrj
lzY2iuRk5J9+AWnC5Ky6MLNBrn+BKoQOUgj1Br09K0UU7Lml1RBCjg92wALAdDoT
elVMwTqH00gCrAvHiaw9uDVBlsNGISpCBuBuf3xYpeqDAZZRwjv7nzv+85Qa
=/8hM
-----END PGP PUBLIC KEY BLOCK-----
