-----BEGIN PGP PUBLIC KEY BLOCK-----

mQINBGZ54qgBEADwoMKDvsKLTE+ds0TnKul7gsQvTVzoCtJamngMXHMDARH1CyU2
thghKf4Qz/d8YHqd1pTjtKPd3fLEHZJ87lJfx4OAI1IJo/yjaO17XfI/JdgNAVOa
nahAtAyhaWwM9pCLllhSGCHF8tzl0oXlSy3ixUeevOpmf9DGNUZKA4Xq2RSvktI+
hScUPowPREUQ9DdpuwslkjBZWMy4ox2EFsCBIJJfNJJ+7kPSn/ydMBTYep7dUsgc
X2GW6nBRUl4kFYp6d+AJmQJuHhKw0o1q/cqcAZh9BvNJiqmjiakoVXz2FIX2yndr
JW7LZlJmsbFsBtcODkVCmwovEzunprf8fb881Vu0AzqKoQJG7wevfM3DkfuupbR9
elmY+5fQb8dI0vxye4Ac7K37xOvdOedSLRsb6USN1glILin6iExlXF2iQp+NB6YH
ll6LQHOeIyF62a2711MW3pOBBMISC6CUdKT81cntfW2xy0JVNb4NZXhx0QuC0I5x
rAgt6Hho6y10f36WmoUlue7Q95XnYi5wizkP9wuacng38M8sbq44RkDE/3doxPKp
JY9Ut0QFFFjQ0RV+TprEhcTmJrpuKsFvQpwxIueyfjAbbTPxVTSmfkzstobESELQ
yNgSnrD7u0D6uzvxnP68NdO6FIh6jeEGwaHVZs9PAxmiBx5IlgNBjFHVjwARAQAB
tCFaYW5lIEtoYXJpdG9ub3YgPHphbmVAdHVybmtleS5pbz6JAlEEEwEIADsWIQTa
djlWiUgkRCQIftGiZKqSgjD+4gUCZnniqAIbAQULCQgHAgIiAgYVCgkICwIEFgID
AQIeBwIXgAAKCRCiZKqSgjD+4rLAD/9wK7EmRfQ6Z6z1c/xTotgfIWik/fjI0YE0
DTlMsLM0dFnuQZ5MgJ1hGhWEfzXVh01h8b7ugH3RfgJCh7vXyan4J9AFWJiscHzf
x34sWoycA/RCjRbx+3/O9kNgAnN4ayUV1yHnvuDslRSYDsueinT9HXsqEJm07Wfg
SdQ+0LmlasKUapo1fOxmukPF3J3UHKFWW3XzXqdyoF12kMmAwzJTJQvyapRHXXzv
sEYp4O+95AblFff9CWfyAu3YMzKuKmsj41BQorMKz19AKaw42dA3ECkJNnj1Cjgs
70sEIBzwCnTAgPFmgCW4gqPthRpu2m/tOaMfl7szqjbWU29d1CNUD9ihNqwZgOOO
aJQoxkMkttYrq2t32iDavj1af+2PxmKsj0Qv0UgHTdevqntWtvDeD1IgOgIpw5ly
T4vufokZfQ/xunOT7p4Kd2vbCiw0VWf4J7ZC+x0/0VsXkJS7YvkBMfLABTRJC3WS
ctczsldRWnoYEOpMGj7yIOjujrqync+5r0oAXl1c55g+VHaqMKZhqk4W0qkVfIC5
LJoCOv7tpBJUvh8vgOcTEoCFKiutNi841kCV2SzBgNugfQ2rKSJLZ2esvhT732Xq
SXcDCm3NlZ1PBm3hH6nTrXfmN1D7pq5hvQ/Ys3OBAB5sd5t2rpBg1AKvmXnXnRI3
NEePSMJPcbkCDQRmeeX7ARAAvKIJ92TDZLZDZXrmUG6bbwPf8c0HNssvnin6i1Kq
5AEtHMmZ9ajTBOWUo8QIIL2K2n2Mzo7V1cgCHfs5v3Ff3wUDCuRlszta8ZajIEXw
DjSrTFjGV96k2lMsTWyp4EPEfBP1l6QcPBucOuhEUKPdXJB4Rwl3KUbJPVfgWATz
OASIpx2mHtwxpw1sTCsOERDPJB//iJQ80AaUDGGI2fB//jg/whvKU39RPtTGQUHP
5PRcHus+E7RnaoO+iK0gFkaAogtoQL3wl9YUkTas+sDGqmCcXrgyuD9/YR/mY+e0
xXh8gAM0C6vfpnLuGyW6iXSTkfB0tPzTJVmOxhBCnH/icQDdQ4U9myUi8tt+wy1u
PIowq4IBT7IUYTTCAy9wHh+C022IQvErQaTdzyOWK7FMVsyRQz/x/Vt92G0ztsDJ
IgDgJM+5o/rcyZWwvzQkC1hiXB1tvl97nha+YkVyf/49dRpKOPwafnHy3KW0yA3j
5HganbZ5lu/sJjbbaMr50iahSqeZIlFwkcHn99KeSaiIaMilPhrhRiaEQarAZ7w2
5FV6HlwQksVCAuQ+jQXSdUwgtwONQDf+xg1CmDDMTe/i0u5EKWNCXZ2q25YJDSWT
4ynPnPWNwpnb90XSILIBJbb0XI9Ga3ElcLTjod7FmiboNmpDWwQa1xHQqX15jtkM
5JsAEQEAAYkEbAQYAQgAIBYhBNp2OVaJSCREJAh+0aJkqpKCMP7iBQJmeeX7AhsC
AkAJEKJkqpKCMP7iwXQgBBkBCAAdFiEE4c33WwZFZHYPUGID08LGoPG8ZqcFAmZ5
5fsACgkQ08LGoPG8ZqfvxhAAkKan9FMV5hqXYIDD51Q9ytkyatebK4dh+rt2FfE+
Dkegd+padtiV/DUtkW1iMgIrKd0XbbtEoD36EwlOyl/Ykga+VjBpI/Q5eMqNeg4R
b9ubUPj44vR6rEc/9vTa7qgnqEMhRjIVt75ILxTG5hEb2mn717DXQzmQZprEF9oi
swpxA89b/xYQPXSQIF+8eseS70jvq9AdgngL8jdO9WqKFT9eWzIOkAju5j3kXp0W
k9yDCZEFv7eTHduEvdKHW0dHj5XkJRKfvS7EVqACy+smsQaMnycv2i9aJyeV7om8
xPXeO9Ta3jJmX8gA8REzTr0Ih6+VM69pvKCsOQkPd7ZhexJbHcbEBzt/69ic5c6f
iu9cJrJdjtdKWTiNhtE29saz2Wqdpi2LLm9SzOSQ+H3RoB+v6jDSTqrobzRPl2HC
S6cMQkmIbGlo0TzPh/fXXmdy7v728OOTmsaYQqNUy4e0qt5euQKZHLD5qZ4abU+u
6kI8ELSpnMyAzYZSUbO3n8kLjt0iuVU6A5sM7Cz+IT9kB84fMaduMw+hkyq69t+5
vSyGuYVfjMWlHlo82YGJc+7X0G8oCZcEbnCTM97GdLnzYDz0O9hdjgn1rquvrVp2
Sc8r3gG0YleuP020RPpkbYkA+/cedUv1cSKbVbTgQxBLu9ENSs/+bAvC/GqYxcdL
FCX49Q/+M2oljosRrUJMCziOon9cOU/6STHYpy3stm0xsTPGEYAIShd7gtvJwvfE
T7JaVO5cx5cpeXLPgrk8R+cYB1CzTRF/wRyK5FaGJxRDHu4CdW49FkeC87162I4N
XBahCQYzZOB72ToQPp1HLuENMcyRtuduirCWBCdXzxRL0JVOUmOapUDvTYKfeZc5
U7Hh7ZrAaeJ8FGRuf3x/vNnNi2PMVnVHF0Y1X7ZvQMgv01QxPykG0XzF4PKXIZBb
de9rKa3F5F+IE0bpxALhjl4mBYD6bCdXqzGlsJ1Fk/ulBn+Ld3hNTQbHxFh4m7YJ
jAJjT8QoP49Gfw88ods3ZZZt+jzIQVFufpECVHFicIsZWKBbHM6Eor4XZbOdB64B
b/uGcDa8BlQdLXhipV8AqqPSmlpdv90KIuKa2YIou0GFgAGsK+99aag/e2etGrAV
lgcSmLxsLhIiOUuoxudO8J1y4h1kAUsxnAhejzGe6f4HdIbc7PLRHxIso0ze7DUt
cdGLm8/oiV9MHeA9yQgVDzlAujBCJrKugPElNfc9PRiEZquh5jdpcR64yfZPPOxV
Qy16Uc7asaY/GGHf/HlsCoZPGl9HCsduCZ63owRt9IUJUYZt4J6RhMnAgl1ooAM8
vWoiJqBzvj4sVL2tDOgfvqWAMr9JjNoZOOaYOsgiJhPvO0p6dD+5Ag0EZnnmSwEQ
ANQMLyOrEvbP8u4TJwkLpieYymcyKjttqp2a9z7al1hNCkROp0zOzFqid1RMibd1
YnvsBsyFihLIzVns0GVssGxOJl/RvALuk7iB5V7nwmMrLx3xvny2lUGxJy/NKKqG
bddIzuVSt41E1BkqMDW+eIQYn85rbNOiFBNSTfSBXK0pIBJkjujgYY/bOhSvPuBP
wKKqu6CRDqAHsPFt5nnbk770h5WiHRA/AlZjaLWQdHtTdmOLGn15x1M/BVZ3gxxx
SmkLBng9bi1uVFGKsWLPFv7A439An3CwZkGZpie5sdIG/sZm0vWrhRFdpa2uvm9e
c5be8LHf4ATv16ISrzf3OoXAwXC2wIaAH3xj/XM2EviS90WB5N53bMazWC9pIieQ
2F9w+uvZnWeW6kFFdkyFoSAWx6bU8hotJvH4jP8DekCkPZ8dq4awGGneKpvQaJ2p
r9OAFICTAm8OdlqoBhLfo0ZKZFYi40h6vCDujfYYOojFKLcCFzoHcAW59lMpWh1i
QxgvBbEARCMvFH6SNsQlqKkTWN+7i7ntFP1QBGH6ZND0wf+pXpMZAOYmq0iUGZd6
a3slfrJXqWdgdSmmJUWxGMGuAFotR4deZiOnEleitRvacE2+qmQrsexVS2kT+PaK
aqgkA9go1x8bmuhvcrlIItSc0MBhO/4e3gKNqkJ54iDVABEBAAGJAjYEGAEIACAW
IQTadjlWiUgkRCQIftGiZKqSgjD+4gUCZnnmSwIbDAAKCRCiZKqSgjD+4hUkD/4t
nk0jS4bc03HbXO68bzW22DqV7au1bJbp6jttIygcPeLYg16gOfi9z/8m/r3YHAZj
1IyXFozCLmlRIpJeJvqrCU7JyBrhb9vhslZCgCGFV7V8J/euerJ4I+95c8fxCnvq
6gL0pWNrXROmKLERwK7nLaJOk+M0PcJoSkha2WGcu962FVrehNJbXOvvOSfUmumG
3EyDoi5gjoA8zbEv9m8ZqS7hAHER0np2ibsLj3VHgohQqgKaV6tTsKdwL6I61k8r
+hNEdrWdlxePlR+75PemN23E3VX+DAbqMBoOVEBRA+/ctzKFBNjoerdyZ5yFVglU
dIYGjgXpCpa7AmelsW1HrsTK6/5ZpELWeWLzaPiGOGlKrJn11I7/U6tucqVZ7im2
2Ag11e9SIZplz92x9lVxZtSJ5wgCrEvSmkGkn9MGzF+8Bv6YHg2N9/GJ188zoRt3
K55eXSiBSUy9tjGWTqwxSBmB3r+vTrm86TSHUkKhM1YGpyq8q2mtU71xxwfljlgb
bIrC8BHtNEuM9F8nOhuShSQq0hXWtXV61plUOr2o1H3qi7DyK8mRWP3icSqSnIDb
YTaRZ9cbjShBzsAUTtl92r1vk9p8BXUXTb2Wru+o8cRu4TBjn8LVtN1WTXpPxcaN
mZWgU+X2denot0N3FjjEeRia/0OZ8OqUs24oiM5QX7kCDQRmeeZiARAA0MB7I250
kPO/UwImpgL9zYAHRk1nN+uTsu+fwZSJe8Zaef+vVFYKH3I777/yN2qYn+rmF+ui
z1+HQA7xABKSiJUbhfoQYkTGpxAp8XSUmav98yQ/shrVqb147GUHXzvYnzYgaAhK
chyUl7XJADVnleI8eFenM5ucegJgndxAnNc3I3j8tg0OSRzNJFID1TyarfGlxvQk
rIwHqirHCclvJelnpPxuBWRIihuX79crJYqLAtFYpqEVKG22dA9Mf1qpQ7PV2jMl
RlTmFcmMoXg/Gk//vBSHKgq5dLuTaRDivR9uCX7QKtpE5bs3hzGGHbSsuhmnN4cO
jOuGP6shJ0InkT4atF3EE4L8COpm9r6zPhHQgjVgHrIBWCvWpfKlgldvqb5K6KlT
06EwaGFbCMpFF7/bwbu64tmEQoxMR2XeRdbyDA5wxL1Wh6Yq/wJdFU5EJB4+z6YF
GgboiVz8Us1wrO0Wn+f4pDVRqBcn+s2R9YsS5shgJKSdEPEJQcn6KLTAZKBh0Qxs
Xh+9/xBNIl43iwp60rBOQW6XI54q+oLELb4X054I0SrJ0lmrxuvGWgqXaA+ILOKo
gdd9e96qxxNepyyGmcLNBXy0baFuxUc1TTFIsHbjC8/VC3oWRssh4br81QFGhJmM
Ahk8SmKQTEdo2EKXyJkzz+8cL6Ao7vQKI5kAEQEAAYkCLQQYAQgAIRYhBNp2OVaJ
SCREJAh+0aJkqpKCMP7iBQJmeeZiAxsgBAAAVBsP/1rf2AH+BA3a2ibAl8ogRO8e
7GkQFcsA1B+w6kj7BCfJ3eX00FfLHJMHkN6nU/2HhZxsFoULxMP7dVY8/qFcAGL3
GRi8p2CFQp2k2IVw0+OniSHKeeY/HMQAkzvzBVXApLBp4hCHL29aXnM05c0t6IvD
laF4TzzuZam+Iql7tysuAWid14yaiOjHAJYD+ZenNZbtbuDS7oKrqs+PiNziiXNP
/59ryDSwJ+r2A0vasx41WUwgs3eFqv90RuV5Tg2kHQBsiuiyvz/ZwCLHE9pdeTTD
mzxo+bRH//ky293Q53r6/DCauh79x8vhgcApWYIb9/4mI7CIXyO5/6+VBGWY24eu
7rZEb+v9mnaAL7aJaDCOJwlDM7QanmOndvol5pp9o8vF6MJrofAR13ACcYnYumG4
uchy5VImTMkOB5QdafjbOB20ahRzLsscxu4BbK4UUaZKIs0k/IOxGAe6qFbI4tPm
64WntIj2REQVpn6ZEO+Zqw/Ap2OhXGVzmGZtI3pKPQ+j5xmrOgBCMqC4+1Z9NqGa
KtE7GAQqdR5P0Oalsp6DiErSKCdtIXfcsA0ivcoPuq5nhEhNZYsUBGmVed+w82gx
+3VolaXgl/MtH/oxqZ4oDm4ETy3GnrwTT/X7hkMIUCjSX9LFcSCMJaN3fq66fXiS
W6Lo6yQ00RA2hEeDUzTd
=MgG/
-----END PGP PUBLIC KEY BLOCK-----
